X: 7215
T: City Of Savannah
R: hornpipe
M: 4/4
K: Dmajor
dB|ADFA dfaf|gaba gfed|cded cdBc|AB^GA =GAFG|
ADFA dfaf|gaba gfed|cdBc AFGE|FAEA D2 dB|
ADFA dfaf|gaba gfed|cded (3cdc Bc|(3ABA ^GA =GAFG|
ADFA dfaf|gaba gfed|cbag fABc|(3dcd fe d2 cd|
(3efe ce aec'e|be^ge aec'e|(3efe ce e<c' ea|^g<b e^g a2 ba|
(3aba ^ga =gece|Aa^ga fdAf|(3gag Bg (3fgf Af|(3efe (3ABc d2 cd|
(3efe ce aec'e|be^ge aec'e|(3efe ce aec'e|be^ge ~a2 a^g|
(3aba ^ga =ga ~A2|(3aba fa daAf|(3gag Bg (3fgf Af|(3efe (3ABc d2||

